X:1
T:Lead Me to Calvary
T:Text: Jennie E. Hussey (1874-1958) Tune: William J. Kirkpatrick (1838-1921)
T:CM DUNCANNON www.hymnary.org/text/king_of_my_life_i_crown_thee_now
T:Lead Me to Calvary
T:This hymn is in the public domain.  You may freely use this score for personal and congregational worship.  If you reproduce the score, please credit Hymnary.org as the source. 
T:This hymn is in the public domain.  You may freely use this score for personal and congregational worship.  If you reproduce the score, please credit Hymnary.org as the source. 
Z:This hymn is in the public domain.  You may freely use this score for personal and congregational worship.  If you reproduce the score, please credit Hymnary.org as the source.
%%score ( 1 2 ) ( 3 4 )
L:1/8
M:4/4
K:D
V:1 treble nm="Piano" snm="Pno."
V:2 treble 
V:3 bass nm="Piano" snm="Pno."
V:4 bass 
V:1
 [DF]2 [DF]>[CE] D2 D2 | [DG]2 [DG]2 [DF]4 | [DF]2 E>D [DA]2 [DF]2 | [CE]6 z2 | %4
w: 3~Let me, like Ma- ry|through the gloom,|come with a gift to|thee;|
w: 1~King of my life, I|crown thee now,|thine shall the glo- ry|be;|
w: 2~Show me the tomb where|thou wast laid,|ten- der- ly mourned and|wept;|
 [DF]2 [DF]>[CE] D2 D2 | [DB]2 [DB]2 [DA]4 | D2 D>E [DF]2 [CE]2 | D6 z2 || %8
w: show to me now the|emp- ty tomb,|lead me to Cal- va-|ry.|
w: lest I for- get thy|thorn- crowned brow,|lead me to Cal- va-|ry.|
w: an- gels in robes of|light ar- rayed|guar- ded thee while thou|slept.|
"^Refrain" [CE]2 [CE]>[DF] [EG]2 [GB]2 | [FA]3 [EG] [DF]4 | [CE]2 [CE]>[CF] [CG]2 [GB]2 | %11
w: Lest I for- get Geth-|se- ma- ne,|lest I for- get thine|
w: |||
w: |||
 [FA]3 [EG] [DF]4 | [Fd]2 [Fd]>[Fd] [Ec]2 [Ec]2 | [DB]2 [^EB]2 [FA]4 | D2 D>E [DF]2 [CE]2 | %15
w: a- go- ny,|lest I for- get thy|love for me,|lead me to Cal- va-|
w: ||||
w: ||||
 D6 z2 |] %16
w: ry.|
w: |
w: |
V:2
 x4 D2 D2 | x8 | x2 C>D x4 | x8 | x4 D2 D2 | x8 | D2 D>D x4 | D6 x2 || x8 | x8 | x8 | x8 | x8 | %13
 x8 | D2 D>D x4 | D6 x2 |] %16
V:3
 [D,A,]2 [D,A,]>[D,G,] [D,F,]2 [D,F,]2 | [G,,B,]2 [G,,B,]2 [D,A,]4 | %2
 [D,A,]2 [D,G,]>[D,F,] [F,A,]2 [D,A,]2 | [A,,A,]6 z2 | [D,A,]2 [D,A,]>[E,A,] [F,A,]2 [D,F,]2 | %5
 [G,,G,]2 [G,,G,]2 [D,F,]4 | [F,A,]2 [F,A,]>[G,B,] A,2 [A,,G,]2 | [D,F,]6 z2 || %8
 [A,,A,]2 [A,,A,]>[A,,A,] [A,,A,]2 [A,,A,]2 | [D,A,]3 [D,A,] [D,A,]4 | %10
 [A,,A,]2 A,>A, [E,A,]2 [A,,C]2 | [D,D]3 [D,A,] [D,A,]4 | %12
 [B,,B,]2 [B,,B,]>[B,,B,] [F,^A,]2 [F,A,]2 | [G,B,]2 [G,D]2 [D,D]4 | %14
 [F,A,]2 [F,A,]>[G,B,] A,2 [A,,G,]2 | [D,F,]6 z2 |] %16
V:4
 x8 | x8 | x8 | x8 | x8 | x8 | x4 A,2 x2 | x8 || x8 | x8 | x2 G,>F, x4 | x8 | x8 | x8 | x4 A,2 x2 | %15
 x8 |] %16

